src/assets/Day2Selected.svg

<svg width="94" height="79" viewBox="0 0 94 79" fill="none" xmlns="http://www.w3.org/2000/svg">
<path d="M74.3801 30.1951H4.09969C2.5379 30.1951 1.36656 29.6969 0.58567 28.9497C-0.195223 28.2024 -0.195223 27.2061 0.58567 26.4589L11.1277 15.2504L0.58567 4.04184C0.195223 3.2946 0.195223 2.29829 0.58567 1.55106C1.36656 0.803821 2.5379 0.305664 4.09969 0.305664H74.3801C75.5514 0.305664 76.7227 0.554742 77.5036 1.30198L93.1215 13.7559C94.2928 14.7522 94.2928 15.9976 93.1215 16.7448L77.5036 29.1988C76.7227 29.946 75.5514 30.1951 74.3801 30.1951ZM11.1277 25.2135H72.8183L85.3126 15.2504L72.8183 5.28723H11.1277L19.3271 14.005C20.108 14.7522 20.108 15.7485 19.3271 16.4958L11.1277 25.2135Z" fill="#323232"/>
<path d="M11.1277 25.2135H72.8183L85.3126 15.2504L72.8183 5.28723H11.1277L19.3271 14.005C20.108 14.7522 20.108 15.7485 19.3271 16.4958L11.1277 25.2135Z" fill="#323232"/>
<path d="M48.343 78.4585H41.3255C39.922 78.4585 38.9863 76.9929 38.9863 74.7946V30.8268C38.9863 28.6284 39.922 27.1628 41.3255 27.1628H48.343C49.7465 27.1628 50.6822 28.6284 50.6822 30.8268V74.7946C50.6822 76.9929 49.7465 78.4585 48.343 78.4585ZM43.6647 71.1306H46.0038V34.4908H43.6647V71.1306Z" fill="#323232"/>
<path d="M43.6647 71.1306H46.0038V34.4908H43.6647V71.1306Z" fill="#323232"/>
<path d="M27.4618 20.0417V10.2417H30.6398C31.7878 10.2417 32.7304 10.4424 33.4678 10.8437C34.2144 11.2451 34.7651 11.8144 35.1198 12.5517C35.4838 13.2797 35.6658 14.1477 35.6658 15.1557C35.6658 16.1544 35.4838 17.0224 35.1198 17.7597C34.7651 18.4877 34.2144 19.0524 33.4678 19.4537C32.7304 19.8457 31.7878 20.0417 30.6398 20.0417H27.4618ZM28.9458 18.7817H30.5838C31.4704 18.7817 32.1704 18.6371 32.6838 18.3477C33.2064 18.0584 33.5798 17.6431 33.8038 17.1017C34.0371 16.5604 34.1538 15.9117 34.1538 15.1557C34.1538 14.3997 34.0371 13.7464 33.8038 13.1957C33.5798 12.6451 33.2064 12.2251 32.6838 11.9357C32.1704 11.6371 31.4704 11.4877 30.5838 11.4877H28.9458V18.7817ZM39.6015 20.2097C39.0135 20.2097 38.5282 20.1117 38.1455 19.9157C37.7629 19.7197 37.4782 19.4631 37.2915 19.1457C37.1049 18.8191 37.0115 18.4644 37.0115 18.0817C37.0115 17.4097 37.2729 16.8777 37.7955 16.4857C38.3182 16.0937 39.0649 15.8977 40.0355 15.8977H41.8555V15.7717C41.8555 15.2304 41.7062 14.8244 41.4075 14.5537C41.1182 14.2831 40.7402 14.1477 40.2735 14.1477C39.8629 14.1477 39.5035 14.2504 39.1955 14.4557C38.8969 14.6517 38.7149 14.9457 38.6495 15.3377H37.1655C37.2122 14.8337 37.3802 14.4044 37.6695 14.0497C37.9682 13.6857 38.3415 13.4104 38.7895 13.2237C39.2469 13.0277 39.7462 12.9297 40.2875 12.9297C41.2582 12.9297 42.0095 13.1864 42.5415 13.6997C43.0735 14.2037 43.3395 14.8944 43.3395 15.7717V20.0417H42.0515L41.9255 18.8517C41.7295 19.2344 41.4449 19.5564 41.0715 19.8177C40.6982 20.0791 40.2082 20.2097 39.6015 20.2097ZM39.8955 19.0057C40.2969 19.0057 40.6329 18.9124 40.9035 18.7257C41.1835 18.5297 41.3982 18.2731 41.5475 17.9557C41.7062 17.6384 41.8042 17.2884 41.8415 16.9057H40.1895C39.6015 16.9057 39.1815 17.0084 38.9295 17.2137C38.6869 17.4191 38.5655 17.6757 38.5655 17.9837C38.5655 18.3011 38.6822 18.5531 38.9155 18.7397C39.1582 18.9171 39.4849 19.0057 39.8955 19.0057ZM45.6631 23.1217L47.3291 19.4677H46.9231L44.1791 13.0977H45.7891L47.9171 18.2357L50.1431 13.0977H51.7111L47.2311 23.1217H45.6631ZM56.3185 20.0417V18.9777C56.9532 18.4737 57.5598 17.9651 58.1385 17.4517C58.7172 16.9384 59.2305 16.4344 59.6785 15.9397C60.1358 15.4357 60.4952 14.9457 60.7565 14.4697C61.0178 13.9844 61.1485 13.5177 61.1485 13.0697C61.1485 12.7711 61.0972 12.4911 60.9945 12.2297C60.8918 11.9591 60.7238 11.7444 60.4905 11.5857C60.2572 11.4177 59.9445 11.3337 59.5525 11.3337C58.9645 11.3337 58.5212 11.5204 58.2225 11.8937C57.9332 12.2671 57.7932 12.7151 57.8025 13.2377H56.3605C56.3698 12.5471 56.5145 11.9684 56.7945 11.5017C57.0838 11.0351 57.4665 10.6804 57.9425 10.4377C58.4278 10.1951 58.9738 10.0737 59.5805 10.0737C60.5045 10.0737 61.2418 10.3351 61.7925 10.8577C62.3525 11.3711 62.6325 12.0897 62.6325 13.0137C62.6325 13.5644 62.4972 14.1104 62.2265 14.6517C61.9652 15.1931 61.6198 15.7157 61.1905 16.2197C60.7705 16.7144 60.3178 17.1811 59.8325 17.6197C59.3472 18.0584 58.8852 18.4551 58.4465 18.8097H62.9265V20.0417H56.3185Z" fill="white"/>
</svg>

<?xml version="1.0" encoding="utf-8"?>
<!-- Generator: Adobe Illustrator 27.9.4, SVG Export Plug-In . SVG Version: 9.03 Build 54784)  -->
<svg version="1.1" id="Layer_1" xmlns="http://www.w3.org/2000/svg" xmlns:xlink="http://www.w3.org/1999/xlink" x="0px" y="0px"
	 viewBox="0 0 94 79" style="enable-background:new 0 0 94 79;" xml:space="preserve">
<style type="text/css">
	.st0{fill:#323232;}
	.st1{fill:#FFFFFF;}
</style>
<path class="st0" d="M93.12,13.76L77.5,1.31c-0.78-0.75-1.95-1-3.12-1H4.1c-1.56,0-2.73,0.49-3.51,1.24C0.2,2.3,0.2,3.29,0.59,4.04
	l10.54,11.21L0.59,26.46c-0.78,0.75-0.78,1.74,0,2.49C1.37,29.7,2.54,30.2,4.1,30.2h34.92c-0.02,0.2-0.03,0.41-0.03,0.63v43.96v0.01
	h11.7V30.83c0-0.22-0.02-0.43-0.03-0.63h23.72c1.17,0,2.34-0.25,3.12-1l15.62-12.45C94.29,16,94.29,14.76,93.12,13.76z"/>
<path class="st1" d="M27.46,20.04v-9.8h3.18c1.15,0,2.09,0.2,2.83,0.6c0.75,0.4,1.3,0.97,1.65,1.71c0.36,0.73,0.55,1.6,0.55,2.6
	s-0.18,1.87-0.55,2.6c-0.35,0.73-0.91,1.29-1.65,1.69c-0.74,0.39-1.68,0.59-2.83,0.59L27.46,20.04L27.46,20.04z M28.95,18.78h1.64
	c0.89,0,1.59-0.14,2.1-0.43c0.52-0.29,0.9-0.7,1.12-1.25c0.23-0.54,0.35-1.19,0.35-1.95c0-0.76-0.12-1.41-0.35-1.96
	c-0.22-0.55-0.6-0.97-1.12-1.26c-0.51-0.3-1.21-0.45-2.1-0.45h-1.64C28.95,11.48,28.95,18.78,28.95,18.78z M39.6,20.21
	c-0.59,0-1.07-0.1-1.46-0.29c-0.38-0.2-0.67-0.45-0.85-0.77c-0.19-0.33-0.28-0.68-0.28-1.06c0-0.67,0.26-1.2,0.78-1.6
	c0.52-0.39,1.27-0.59,2.24-0.59h1.82v-0.13c0-0.54-0.15-0.95-0.45-1.22c-0.29-0.27-0.67-0.41-1.13-0.41c-0.41,0-0.77,0.1-1.08,0.31
	c-0.3,0.2-0.48,0.49-0.55,0.88h-1.48c0.05-0.5,0.21-0.93,0.5-1.29c0.3-0.36,0.67-0.64,1.12-0.83c0.46-0.2,0.96-0.29,1.5-0.29
	c0.97,0,1.72,0.26,2.25,0.77c0.53,0.5,0.8,1.19,0.8,2.07v4.27h-1.29l-0.13-1.19c-0.2,0.38-0.48,0.7-0.85,0.97
	C40.7,20.08,40.21,20.21,39.6,20.21z M39.9,19.01c0.4,0,0.74-0.09,1.01-0.28c0.28-0.2,0.49-0.45,0.64-0.77
	c0.16-0.32,0.26-0.67,0.29-1.05h-1.65c-0.59,0-1.01,0.1-1.26,0.31c-0.24,0.21-0.36,0.46-0.36,0.77c0,0.32,0.12,0.57,0.35,0.76
	C39.16,18.92,39.48,19.01,39.9,19.01z M45.66,23.12l1.67-3.65h-0.41l-2.74-6.37h1.61l2.13,5.14l2.23-5.14h1.57l-4.48,10.02
	C47.24,23.12,45.66,23.12,45.66,23.12z M56.32,20.04v-1.06c0.63-0.5,1.24-1.01,1.82-1.53c0.58-0.51,1.09-1.02,1.54-1.51
	c0.46-0.5,0.82-0.99,1.08-1.47c0.26-0.49,0.39-0.95,0.39-1.4c0-0.3-0.05-0.58-0.15-0.84c-0.1-0.27-0.27-0.49-0.5-0.64
	c-0.23-0.17-0.55-0.25-0.94-0.25c-0.59,0-1.03,0.19-1.33,0.56c-0.29,0.37-0.43,0.82-0.42,1.34h-1.44c0.01-0.69,0.15-1.27,0.43-1.74
	c0.29-0.47,0.67-0.82,1.15-1.06c0.49-0.24,1.03-0.36,1.64-0.36c0.92,0,1.66,0.26,2.21,0.78c0.56,0.51,0.84,1.23,0.84,2.16
	c0,0.55-0.14,1.1-0.41,1.64c-0.26,0.54-0.61,1.06-1.04,1.57c-0.42,0.49-0.87,0.96-1.36,1.4s-0.95,0.84-1.39,1.19h4.48v1.23h-6.6
	V20.04z"/>
</svg>
